www/assets/icons/south_america.svg

<svg xmlns="http://www.w3.org/2000/svg" width="24" height="24" viewBox="0 0 24 24" fill='currentColor'><path d="M12 2C6.48 2 2 6.48 2 12s4.48 10 10 10 10-4.48 10-10S17.52 2 12 2M4 12c0-1.95.7-3.74 1.87-5.13L9 10v1c0 1.1.9 2 2 2v5.59c0 .27.11.52.29.71l.71.7c-4.42 0-8-3.58-8-8m9 7.94V18l3.75-5.62c.16-.25.25-.54.25-.83V10.5c0-.55-.45-1-1-1h-1.5l-1.4-1.75c-.38-.47-.95-.75-1.56-.75H8V5.07A7.97 7.97 0 0 1 12 4c4.41 0 8 3.59 8 8 0 4.07-3.06 7.44-7 7.94"/></svg>

<svg width="24" height="24" viewBox="0 0 24 24" xmlns="http://www.w3.org/2000/svg" fill='currentColor'><path d="M12 2C6.48 2 2 6.48 2 12C2 17.52 6.48 22 12 22C17.52 22 22 17.52 22 12C22 6.48 17.52 2 12 2ZM4 12C4 10.05 4.7 8.26 5.87 6.87L9 10V11C9 12.1 9.9 13 11 13V18.59C11 18.86 11.11 19.11 11.29 19.3L12 20C7.58 20 4 16.42 4 12ZM13 19.94V18L16.75 12.38C16.91 12.13 17 11.84 17 11.55V10.5C17 9.95 16.55 9.5 16 9.5H14.5L13.1 7.75C12.72 7.28 12.15 7 11.54 7H8V5.07C9.18 4.39 10.54 4 12 4C16.41 4 20 7.59 20 12C20 16.07 16.94 19.44 13 19.94Z"/></svg>
